X:1
T:Puisque fortune a sur moy
T:Mittantier
T:Source : Livre XI de 28 chansons nouvelles à 4 parties---Paris---P.Attaingnant---1542. Editor : André Vierendeels (03/06/18) Notes : Original clefs : C1, C3, C3, F4 Original note values have been halved Editorial accidentals above the staff Square brackets indicate ligatures 
T:Puisque fortune a sur moy
T:©
T:©
T:©
C:Mittantier
Z:©
%%score [ 1 [ 2 3 ] 4 ]
L:1/8
Q:1/4=120
M:2/2
K:C
V:1 treble nm="Soprano" snm="S"
V:2 treble-8 nm="Tenor 1" snm="T 1"
V:3 treble-8 nm="Tenor 2" snm="T 2"
V:4 bass nm="Bass" snm="B"
V:1
 z8 | E4 E2 F2 | G4 E2 c2 | c2 B2 A2 A2 | GFGA Bc A2 | G4 z2 G2 | G2 A2 B4 | G2 c2 B2 d2- | %8
w: |Puis- que for-|tu- ne'a sur|moy en- tre- prins|_ _ _ _ _ _ _|* puis-|que for- tu-|ne'a sur moy en-|
 d2 cB c3 B/A/ | G2 A4 G2 | A2 A4 E2 | A2 GG A2 B2 | c2 BA G2 c2 | B2 A4 E2 | A2 GG A2 B2 | %15
w: |* tre- *|prins, las, my|doibt on de tout plai-|sir _ _ _ ba-|nir, las, my|doibt on de tout plai-|
 c2 BA G2 c2 | B2 G2 A3 B | c2 d4 c2- | c2 B2 c2 G2- | G2 A2 A2 B2- | BAGF E2 E2 | F2 F2 G4 | %22
w: sir _ _ _ ba-|nir, de tout _|_ plai- sir|_ ba- nir? Et|_ sans se- cours|_ _ _ _ _ in-|ces- sa- ment,|
 E4 A2 G2 | G4 G4 | A2 A2 BAGF | E2 c2 B2 G2 | AG G4 F2 |[M:2/4] G4 |:[M:2/2] z4 E4- | E4 G4 | %30
w: in- ces- sa-|ment et|sans se- * cours _ _|_ in- ces- sa-|* * ment te-|nir,|mieulx|_ me|
 A4 G4- | G8- | G4 z2 G2 | F2 E2 F2 G2 | E8 | z2 c2 c2 B2 | c3 B A2 G2 | A2 FG AB c2 | B2 A4 G2 | %39
w: vaul- droit|_|* de|la mort es- tre|prins,|de la mort|es- * * *|* tre _ _ _ _|_ _ _|
 A8 :| %40
w: prins.|
V:2
 z8 | B4 c2 d2 | e4 c2 e2 | e3 d c2 c2 | B2 g4 fe | d4 z2 e2 | e2 f2 g4 | e2 e4 f2 | d4 z2 e2- | %9
w: |Puis- que for-|tn- ne'a sur|moy _ _ en-|tre _ _ _|prins, puis-|que for- tu-|ne'a sur _|moy en-|
 e2 d2 e4 | c8 | z2 e4 B2 | e2 dd e2 f2 | gfed c4 | e4 e2 g2 | f2 f2 e2 z c | d2 e2 f4 | g2 a4 gf | %18
w: * tre- *|prins,|las, my|doubt on de tout plai-|sir _ _ _ _|de tout plai-|sir ba- nir, de|tout plai- sir|ba- * * *|
 g4 e4 | z2 c4 d2 | d2 e3 dcB | A2 d2 B2 B2 | c3 d e4 | d2 e2 B2 c2 | c2 d4 G2 | g2 f2 d2 e2- | %26
w: * nir?|Et sans|se- cours _ _ _|_ in- ces- sa-|ment _ _|te- nir et ans|se- cours in-|ces- sa- ment te-|
 e2 dc d4 |[M:2/4] B4 |:[M:2/2] z4 c4- | c4 d4 | e6 dc | d2 e4 d2 | e2 c2 c2 B2 | c3 B A2 G2 | %34
w: |nir,|mieulx|_ me|vaul- * *||droit de le mort|es- * * tre|
 A4 z2 E2 | e4 e2 e2- | e2 dc d2 e2 | A2 f2 f2 e2 | f4 e4 | e8 :| %40
w: prins, de|la mort es-|* * * * tre|pris, de lz mort|es- tre|prins.|
V:3
 E4 E2 F2 | G4 A2 A2 | c2 B2 A2 A2 | G4 E4- | E4 G2 A2 | B4 G2 c2 | B2 d4 cB | c3 B/A/ G2 A2- | %8
w: Puis- que for-|tu- ne'a sur|moy en _ tre-|prins, puis-|* que for-|tu- ne'a sur|moy en- * *||
 A2 G2 A2 c2 | B2 A2 B2 B2 | A4 z2 A2- | A2 E2 A2 GG | A2 B2 c2 BA | G2 A3 B c2- | c2 B2 c2 e2- | %15
w: * tre- prins, a|sur moy en- tre-|prins, las,|_ my doibt on de|tout plai- sir _ _|_ ba- * *||
 e2 d2 e4 | z2 B2 c2 d2 | e2 f3 edc | d4 c4- | c4 z4 | z2 G4 A2 | A2 B2 z2 G2- | G2 A2 A2 B2- | %23
w: * * nir,|de tout plai-|sir ba- * * *|* nir?|_|Et sans|se- cours, et|_ sans se- cours|
 BAGF E2 E2 | E2 F2 GFED | C2 A2 B2 B2 | cBAG A4 |[M:2/4] G4 |:[M:2/2] z4 G4- | G4 B4 | c4 B4 | %31
w: _ _ _ _ _ in-|ces- sa- ment, _ _ _|_ in ces- sa-|ment _ _ _ te-|nir,|Mieulx|_ me|vaul- droit|
 z2 c2 c2 B2 | c3 B A2 G2 | A4 z4 | z2 c2 c2 B2 | c3 B A2 G2 | A4 z2 c2 | c2 A2 d2 e2 | d3 c B4 | %39
w: de la mort|es- * * tre|prins,|de la mort|es _ _ tre|prins, de|la mort es- *|* * tre|
 A8 :| %40
w: prins.|
V:4
 A,,4 C,2 D,2 | E,4 A,,2 D,2 | C,2 G,,2 A,,B,,C,D, | E,4 A,,4 | z2 E,2 E,2 F,2 | G,4 C,B,,C,D, | %6
w: Puis- que for-|tu- ne'a sur|moy en- tre- * * *|* prins,|puis- que for-|tu- ne'a _ _ _|
 E,2 D,2 G,2 G,2 | C,B,,C,D, E,2 D,C, | B,,2 B,,2 A,,2 A,,2 | E,2 F,2 E,2 E,2 | A,,8 | z8 | z8 | %13
w: _ sur moy en-||* tre- prins, a|sur moy en- tre-|prins,|||
 z4 z2 A,2- | A,2 E,2 A,2 G,G, | A,2 B,2 C3 B,/A,/ | G,2 G,2 F,2 F,2 | E,2 D,2 A,4 | G,4 C,2 C2- | %19
w: las,|_ my doibt on de|tout plai- sir _ _|_ ba- nir, de|tout plai- sir|ba- nir? Et|
 C2 F,2 A,2 G,2- | G,F,E,D, C,2 C,2 | D,2 D,2 E,3 D, | C,B,, A,,4 E,2 | G,2 E,2 E,D,C,B,, | %24
w: _ sans se- cours,|_ _ _ _ _ et|sans se- cours _|_ _ _ in|ces- sa- ment _ _ _|
 A,,2 D,2 G,,2 E,2 | E,2 F,2 G,F,E,D, | C,2 E,2 D,4 |[M:2/4] G,,4 |:[M:2/2] z4 C,4- | C,4 B,,4 | %30
w: _ te- nir, in-|ces- sa- ment _ _ _|_ te- *|nie,|Mieulx|_ me|
 A,,B,,C,D, E,F, G,2- | G,2 C,2 G,4 | C,2 E,2 F,2 G,2 |"^#" z2 C2 C2 B,2 | C3 B, A,2 G,2 | %35
w: vaul- * * * * * droit,|_ de la|mort es- tre prins,|de la mort|es- * * *|
 A,2 A,,B,, C,D, E,2 | A,,2 F,2 F,2 E,2 | F,3 E, D,2 C,2 | D,4 E,4 | A,,8 :| %40
w: * * * * * tre|prins, de la mort|es- * * tre-||prins.|

